X: 741
T: Ezelden Âşinânım Ben
C: Şerif İçli
O: Turkey
F: http://compmusic.upf.edu/node/140
N: huseyni--sarki--aksak--ezelden_asinanim--serif_icli
N: makam= huseyni
N: form= sarki
N: usul= aksak = 9/8
M: 9/8
L: 1/16
K: C _2/4B ^3/4f  
Q: 1/4=120
%%MIDI tuningsystem comma53
G2A4e2 e3d (3edcc2 de | d2 e4 e^2/4fg=f eddf eddc  | 
w:  E zel *  den  *  â *  *  *  şi  |  nâ *  *  *  nım  *  *  *  ben   | 
eddc B2cd cBBA A4 z2 | A2 g2^2/4f2 e2e2 =feed cdef  | 
w:  e *  zel *  *  *  *  den  *  *  *  hem  |  ze bâ *  *  nım  | 
d2e4ce d2cB A4 z2 | G2 A4 e2e3d(3edc c2de  | \
w:  sın   *  SAZ  |  E zel *  den  *  â *  *  *  şi  | 
d2e4e^2/4f g=fed dfed dc | 
w:  nâ *  *  *  nım  *  *  *  ben   | 
ed dcB2 cdcB BAA4z2  | A2g2 ^2/4f2e2 e2=fe edcd ef | 
w:  e *  zel *  *  *  *  den  *  *  *  hem  |  ze bâ *  *  nım  | 
d2 e4 e=fed cde4z2  | eg=f4fe e3d dfed dc | 
w:  sın   *  SAZ  |  Be *  ra *  *  ber  *  ah  | 
ed dec2 d2cB BAA4B2  | G2A4G2 c2Bc d2ed dc | 
w:  de  *  bağ *  *  *  lan *  *  *  dık   |  ne  ol *  sa  *  *  yâr_  | 
ed dcB2 cddc BcB2 A4  | G2A4e=f edcd e4 z2 | 
w:  i  *  câ *  *  *  *  nım  |  sın   *  SAZ  | 
eg =f4 fee3ddf eddc  | edde c2d2 cBBA A4 B2 | 
w:  Be *  ra *  *  ber  *  ah  |  de  *  bağ *  *  *  lan *  *  *  dık   | 
G2 A4 G2c2 Bcd2 eddc  | eddc B2cd dcBc B2A4 | 
w:  ne  ol *  sa  *  *  yâr_  |  i  *  câ *  *  *  *  nım  | 
G2 A4 fgag fga4z2  | g2g4a2 a2ba a6 | \
w:  sın   *  SAZ  |  Ne  ol *  san  *  *  zer  | 
_1/4ba g4 gff3ee6  | 
w:  re *  nim  *  *  kal *  bim  | 
d2e4a2 g=fed cBBA A2 | A2 g2^2/4f2 e2e2 =feed cdef  | 
w:  de  hâ *  lâ  *  *  *  çar  |  par  es *  *  râ  | 
d2e4fg agfg a6 | g2 g4 a2a2 baa6  | _1/4bag4gf f3e e6 | 
w:  rın   *  SAZ  |  Ne  ol *  san  *  *  zer  |  re *  nim  *  *  kal *  bim  | 
d2 e4 a2g=f edcB BAA2  | A2g2 ^2/4f2e2 e2=fe edcd ef | 
w:  de  hâ *  lâ  *  *  *  çar  |  par  es *  *  râ  | 
d2 e4 e=fed cde4z2  | eg=f4fe e3d dfed dc | 
w:  rın   *  SAZ  |  Be *  ra *  *  ber  *  ah  | 
ed dec2 d2cB BAA4B2  | G2A4G2 c2Bc d2ed dc | 
w:  de  *  bağ *  *  *  lan *  *  *  dık   |  ne  ol *  sa  *  *  yâr_  | 
ed dcB2 cddc BcB2 A4  | G2A4e=f edcd e4 z2 | 
w:  i  *  câ *  *  *  *  nım  |  sın   *  SAZ  | 
eg =f4 fee3ddf eddc  | edde c2d2 cBBA A4 B2 | 
w:  Be *  ra *  *  ber  *  ah  |  de  *  bağ *  *  *  lan *  *  *  dık   | 
G2 A4 G2c2 Bcd2 eddc  | eddc B2cd dcBc B2A4 | 
w:  ne  ol *  sa  *  *  yâr_  |  i  *  câ *  *  *  *  nım  | 
G2 A4 |
w:  sın    | 


